public/assets/images/icon/wcuIcon1_3.svg

<svg width="80" height="80" viewBox="0 0 80 80" fill="none" xmlns="http://www.w3.org/2000/svg">
<rect opacity="0.2" x="0.5" y="0.5" width="79" height="79" rx="9.5" stroke="#7444FD"/>
<path opacity="0.888" fill-rule="evenodd" clip-rule="evenodd" d="M22.4217 15.0071C23.7365 14.9881 25.0509 15.0071 26.3645 15.0642C26.936 15.2841 27.3031 15.6835 27.4662 16.2625C27.5242 17.8598 27.5435 19.4576 27.5242 21.0558C29.1481 21.0367 30.7716 21.0558 32.3947 21.1128C33.353 21.3903 33.7782 22.018 33.6703 22.9959C38.0869 22.9402 42.4935 22.9973 46.8902 23.1671C49.5768 25.811 52.2632 28.4548 54.9497 31.0988C55.0077 33.9517 55.0271 36.8048 55.0077 39.6582C56.5504 39.9022 57.6908 40.7011 58.4287 42.0548C59.4195 44.5442 58.8203 46.5985 56.6312 48.2176C58.8932 49.9292 59.4538 52.0595 58.3127 54.6086C57.8902 55.3097 57.3298 55.8803 56.6312 56.3205C58.708 57.8673 59.3458 59.8454 58.5446 62.255C57.8773 63.734 56.7369 64.628 55.1237 64.9369C45.7264 65.0494 36.3333 65.0114 26.9443 64.8228C24.5066 63.9254 23.405 62.1946 23.6393 59.6301C23.9091 58.164 24.7016 57.0798 26.0166 56.3775C23.8572 54.9865 23.1422 53.0653 23.8713 50.6142C24.2776 49.5872 24.9542 48.7883 25.9007 48.2176C24.6647 47.4378 23.9109 46.3346 23.6393 44.9079C23.5814 41.0279 23.562 37.1476 23.5814 33.2672C22.5194 33.5411 21.7656 33.1987 21.3201 32.24C21.2621 30.5666 21.2428 28.8927 21.2621 27.2185C19.5608 27.2376 17.86 27.2185 16.1596 27.1615C15.7219 26.9969 15.3933 26.7116 15.1739 26.3055C14.942 24.898 14.942 23.4904 15.1739 22.0829C15.3021 21.6906 15.5533 21.4053 15.9277 21.2269C17.6991 21.0631 19.4772 21.0061 21.2621 21.0558C21.2428 19.3815 21.2621 17.7077 21.3201 16.0343C21.5259 15.5079 21.8931 15.1655 22.4217 15.0071ZM22.6536 16.0343C23.814 16.0152 24.9736 16.0343 26.1326 16.0913C26.1906 16.1484 26.2485 16.2054 26.3065 16.2625C26.4386 18.1553 26.5352 20.0574 26.5964 21.9688C28.4854 22.0622 30.3795 22.1193 32.2787 22.14C32.3753 22.2351 32.472 22.3302 32.5686 22.4253C32.646 23.5665 32.646 24.7078 32.5686 25.849C32.5329 25.9412 32.4749 26.0174 32.3947 26.0773C30.5057 26.1707 28.6116 26.2278 26.7124 26.2485C26.6544 26.3055 26.5964 26.3626 26.5385 26.4196C26.4998 28.2457 26.4611 30.0717 26.4225 31.8977C26.3791 32.0022 26.3211 32.0974 26.2485 32.183C25.0116 32.2591 23.7747 32.2591 22.5377 32.183C22.4797 32.1259 22.4217 32.0688 22.3637 32.0118C22.3251 30.1858 22.2864 28.3598 22.2478 26.5338C22.2121 26.4416 22.1541 26.3654 22.0738 26.3055C20.1849 26.2121 18.2908 26.155 16.3916 26.1343C16.23 26.0007 16.1334 25.8295 16.1017 25.6208C16.0243 24.6316 16.0243 23.6426 16.1017 22.6535C16.1376 22.509 16.1955 22.3758 16.2756 22.2541C18.1978 22.1052 20.1305 22.0291 22.0738 22.0258C22.1318 21.9688 22.1898 21.9117 22.2478 21.8546C22.2864 20.0286 22.3251 18.2026 22.3637 16.3766C22.4447 16.2407 22.5413 16.1266 22.6536 16.0343ZM33.6703 24.023C37.7676 24.023 41.8651 24.023 45.9625 24.023C45.925 26.577 45.9638 29.1258 46.0785 31.6694C46.1393 31.7484 46.2167 31.8054 46.3104 31.8406C48.8613 31.8977 51.4125 31.9167 53.964 31.8977C53.964 34.4464 53.964 36.9953 53.964 39.5441C45.228 39.525 36.492 39.5441 27.7561 39.6011C26.5321 39.7374 25.5078 40.2509 24.683 41.1418C24.625 38.5172 24.6057 35.8923 24.625 33.2672C25.2448 33.2861 25.8632 33.267 26.4805 33.2101C26.879 33.084 27.169 32.8367 27.3502 32.4683C27.5166 30.725 27.5746 28.975 27.5242 27.2185C29.1867 27.2376 30.849 27.2185 32.5106 27.1615C33.0597 27.0396 33.427 26.7163 33.6123 26.1914C33.6703 25.4696 33.6895 24.7468 33.6703 24.023ZM47.0062 24.936C49.0315 26.8722 51.0416 28.8313 53.0363 30.8135C51.0267 30.8705 49.0166 30.8896 47.0062 30.8705C47.0062 28.8924 47.0062 26.9142 47.0062 24.936ZM27.872 40.5712C30.2296 40.6658 31.5826 41.8641 31.9308 44.1661C31.4785 46.8174 29.9324 47.9586 27.2922 47.5899C25.1652 46.7883 24.3341 45.2856 24.799 43.0819C25.3416 41.6654 26.3659 40.8284 27.872 40.5712ZM54.3119 40.5712C56.3122 40.7708 57.5298 41.8359 57.9648 43.7667C57.9576 45.9424 56.8753 47.2738 54.7178 47.7611C46.903 47.7782 39.0754 47.7591 31.235 47.704C32.8721 46.2243 33.3166 44.4553 32.5686 42.3972C32.2905 41.7548 31.8846 41.2031 31.351 40.7424C39.0241 40.7233 46.6778 40.6662 54.3119 40.5712ZM27.2922 48.7882C29.9631 48.5073 31.5094 49.6676 31.9308 52.269C31.4845 54.9538 29.8996 56.0951 27.1763 55.6928C25.2951 54.9776 24.4641 53.6271 24.683 51.6413C25.0231 50.2047 25.8929 49.2537 27.2922 48.7882ZM31.351 48.9023C39.2944 48.7694 47.2572 48.7503 55.2396 48.8453C57.5283 49.6789 58.3594 51.2578 57.7329 53.5815C57.1665 54.7848 56.2194 55.5266 54.8917 55.8069C47.0062 55.883 39.1206 55.883 31.235 55.8069C32.8693 54.3377 33.3139 52.5687 32.5686 50.5001C32.3013 49.8575 31.8954 49.3249 31.351 48.9023ZM27.4082 56.8911C30.0053 56.685 31.5129 57.8453 31.9308 60.3719C31.5744 62.811 30.1441 63.9902 27.6401 63.9098C25.4958 63.3233 24.5101 61.9347 24.683 59.7442C25.1013 58.3248 26.0098 57.3738 27.4082 56.8911ZM31.351 57.0052C39.2944 56.8723 47.2572 56.8532 55.2396 56.9482C57.5283 57.7818 58.3594 59.3606 57.7329 61.6843C57.2219 62.8965 56.3135 63.6383 55.0077 63.9098C47.1221 63.9859 39.2366 63.9859 31.351 63.9098C33.1861 61.9571 33.3988 59.8458 31.9888 57.5758C31.7912 57.3621 31.5786 57.1718 31.351 57.0052Z" fill="#7444FD"/>
<path opacity="0.823" fill-rule="evenodd" clip-rule="evenodd" d="M43.5272 19.5723C44.3543 19.6067 44.6828 20.0252 44.5129 20.8276C43.9237 21.4538 43.3825 21.4157 42.8894 20.7135C42.7892 20.1468 43.0019 19.7664 43.5272 19.5723Z" fill="#7444FD"/>
<path opacity="0.835" fill-rule="evenodd" clip-rule="evenodd" d="M58.9505 34.2942C59.4149 34.2564 59.8014 34.4087 60.1101 34.7507C60.4243 34.3664 60.8108 34.2523 61.2698 34.4083C61.4677 34.8922 61.3518 35.2917 60.9219 35.6066C61.3719 35.9093 61.4879 36.3087 61.2698 36.805C60.8108 36.961 60.4243 36.8468 60.1101 36.4626C59.796 36.8468 59.4095 36.961 58.9505 36.805C58.6898 36.334 58.8058 35.9345 59.2984 35.6066C58.7805 35.2429 58.6645 34.8055 58.9505 34.2942Z" fill="#7444FD"/>
<path opacity="0.859" fill-rule="evenodd" clip-rule="evenodd" d="M19.1747 41.1418C19.4098 41.1233 19.6417 41.1424 19.8705 41.1989C20.0079 41.3533 20.1626 41.4865 20.3344 41.5983C20.5061 41.4865 20.6608 41.3533 20.7982 41.1989C21.5133 40.9897 21.7646 41.2369 21.552 41.9407C21.3951 42.0759 21.2598 42.2282 21.1461 42.3972C21.2598 42.5662 21.3951 42.7184 21.552 42.8537C21.7168 43.3022 21.5815 43.6066 21.1461 43.7667C20.8432 43.6207 20.5726 43.4306 20.3344 43.1961C20.0905 43.4551 19.8006 43.6454 19.4646 43.7667C19.0751 43.6835 18.9205 43.4552 19.0008 43.0819C19.1524 42.8376 19.3263 42.6093 19.5226 42.3972C19.3055 42.1649 19.1122 41.9176 18.9428 41.6554C19.0059 41.4745 19.0832 41.3033 19.1747 41.1418Z" fill="#7444FD"/>
<path opacity="0.831" fill-rule="evenodd" clip-rule="evenodd" d="M62.6613 50.5001C63.079 50.4963 63.4269 50.6485 63.705 50.9566C64.0192 50.5723 64.4057 50.4582 64.8647 50.6142C65.1253 51.0852 65.0094 51.4846 64.5168 51.8125C65.0094 52.1404 65.1253 52.5398 64.8647 53.0108C64.4057 53.1668 64.0192 53.0527 63.705 52.6684C63.3909 53.0527 63.0044 53.1668 62.5454 53.0108C62.2847 52.5398 62.4006 52.1404 62.8933 51.8125C62.3209 51.4122 62.2435 50.9747 62.6613 50.5001Z" fill="#7444FD"/>
<path opacity="0.823" fill-rule="evenodd" clip-rule="evenodd" d="M22.7696 55.5215C23.5987 55.5577 23.9273 55.9762 23.7553 56.7769C23.1561 57.4151 22.615 57.377 22.1318 56.6627C22.0316 56.0961 22.2443 55.7156 22.7696 55.5215Z" fill="#7444FD"/>
</svg>

<?xml version="1.0" encoding="UTF-8"?>
<svg id="Capa_1" xmlns="http://www.w3.org/2000/svg" version="1.1" viewBox="0 0 80 80">
  <!-- Generator: Adobe Illustrator 29.8.1, SVG Export Plug-In . SVG Version: 2.1.1 Build 2)  -->
  <defs>
    <style>
      .st0 {
        fill: none;
        opacity: .74;
        stroke: #129689;
      }

      .st0, .st1, .st2, .st3, .st4, .st5 {
        isolation: isolate;
      }

      .st1 {
        opacity: .82;
      }

      .st1, .st2, .st3, .st4, .st5 {
        fill: #129689;
        fill-rule: evenodd;
      }

      .st2 {
        opacity: .83;
      }

      .st3 {
        opacity: .89;
      }

      .st4 {
        opacity: .83;
      }

      .st5 {
        opacity: .86;
      }
    </style>
  </defs>
  <rect class="st0" x=".5" y=".5" width="79" height="79" rx="9.5" ry="9.5"/>
  <path class="st3" d="M22.42,15.01c1.31-.02,2.63,0,3.94.06.57.22.94.62,1.1,1.2.06,1.6.08,3.2.06,4.79,1.62-.02,3.25,0,4.87.06.96.28,1.38.91,1.28,1.88,4.42-.06,8.82,0,13.22.17,2.69,2.64,5.37,5.29,8.06,7.93.06,2.85.08,5.71.06,8.56,1.54.24,2.68,1.04,3.42,2.4.99,2.49.39,4.54-1.8,6.16,2.26,1.71,2.82,3.84,1.68,6.39-.42.7-.98,1.27-1.68,1.71,2.08,1.55,2.71,3.52,1.91,5.93-.67,1.48-1.81,2.37-3.42,2.68-9.4.11-18.79.07-28.18-.11-2.44-.9-3.54-2.63-3.31-5.19.27-1.47,1.06-2.55,2.38-3.25-2.16-1.39-2.87-3.31-2.15-5.76.41-1.03,1.08-1.83,2.03-2.4-1.24-.78-1.99-1.88-2.26-3.31-.06-3.88-.08-7.76-.06-11.64-1.06.27-1.82-.07-2.26-1.03-.06-1.67-.08-3.35-.06-5.02-1.7.02-3.4,0-5.1-.06-.44-.16-.77-.45-.99-.86-.23-1.41-.23-2.82,0-4.22.13-.39.38-.68.75-.86,1.77-.16,3.55-.22,5.33-.17-.02-1.67,0-3.35.06-5.02.21-.53.57-.87,1.1-1.03ZM22.65,16.03c1.16-.02,2.32,0,3.48.06.06.06.12.11.17.17.13,1.89.23,3.79.29,5.71,1.89.09,3.78.15,5.68.17.1.1.19.19.29.29.08,1.14.08,2.28,0,3.42-.04.09-.09.17-.17.23-1.89.09-3.78.15-5.68.17-.06.06-.12.11-.17.17-.04,1.83-.08,3.65-.12,5.48-.04.1-.1.2-.17.29-1.24.08-2.47.08-3.71,0-.06-.06-.12-.11-.17-.17-.04-1.83-.08-3.65-.12-5.48-.04-.09-.09-.17-.17-.23-1.89-.09-3.78-.15-5.68-.17-.16-.13-.26-.3-.29-.51-.08-.99-.08-1.98,0-2.97.04-.14.09-.28.17-.4,1.92-.15,3.85-.23,5.8-.23.06-.06.12-.11.17-.17.04-1.83.08-3.65.12-5.48.08-.14.18-.25.29-.34ZM33.67,24.02h12.29c-.04,2.55,0,5.1.12,7.65.06.08.14.14.23.17,2.55.06,5.1.08,7.65.06v7.65c-8.74-.02-17.47,0-26.21.06-1.22.14-2.25.65-3.07,1.54-.06-2.62-.08-5.25-.06-7.87.62.02,1.24,0,1.86-.06.4-.13.69-.37.87-.74.17-1.74.22-3.49.17-5.25,1.66.02,3.32,0,4.99-.06.55-.12.92-.45,1.1-.97.06-.72.08-1.44.06-2.17ZM47.01,24.94c2.03,1.94,4.04,3.9,6.03,5.88-2.01.06-4.02.08-6.03.06v-5.93ZM27.87,40.57c2.36.09,3.71,1.29,4.06,3.59-.45,2.65-2,3.79-4.64,3.42-2.13-.8-2.96-2.3-2.49-4.51.54-1.42,1.57-2.25,3.07-2.51ZM54.31,40.57c2,.2,3.22,1.26,3.65,3.2,0,2.18-1.09,3.51-3.25,3.99-7.81.02-15.64,0-23.48-.06,1.64-1.48,2.08-3.25,1.33-5.31-.28-.64-.68-1.19-1.22-1.65,7.67-.02,15.33-.08,22.96-.17ZM27.29,48.79c2.67-.28,4.22.88,4.64,3.48-.45,2.68-2.03,3.83-4.75,3.42-1.88-.72-2.71-2.07-2.49-4.05.34-1.44,1.21-2.39,2.61-2.85ZM31.35,48.9c7.94-.13,15.91-.15,23.89-.06,2.29.83,3.12,2.41,2.49,4.74-.57,1.2-1.51,1.95-2.84,2.23-7.89.08-15.77.08-23.66,0,1.63-1.47,2.08-3.24,1.33-5.31-.27-.64-.67-1.18-1.22-1.6ZM27.41,56.89c2.6-.21,4.1.95,4.52,3.48-.36,2.44-1.79,3.62-4.29,3.54-2.14-.59-3.13-1.98-2.96-4.17.42-1.42,1.33-2.37,2.73-2.85ZM31.35,57.01c7.94-.13,15.91-.15,23.89-.06,2.29.83,3.12,2.41,2.49,4.74-.51,1.21-1.42,1.95-2.73,2.23-7.89.08-15.77.08-23.66,0,1.84-1.95,2.05-4.06.64-6.33-.2-.21-.41-.4-.64-.57Z"/>
  <path class="st1" d="M43.53,19.57c.83.03,1.16.45.99,1.26-.59.63-1.13.59-1.62-.11-.1-.57.11-.95.64-1.14Z"/>
  <path class="st2" d="M58.95,34.29c.46-.04.85.11,1.16.46.31-.38.7-.5,1.16-.34.2.48.08.88-.35,1.2.45.3.57.7.35,1.2-.46.16-.85.04-1.16-.34-.31.38-.7.5-1.16.34-.26-.47-.14-.87.35-1.2-.52-.36-.63-.8-.35-1.31Z"/>
  <path class="st5" d="M19.17,41.14c.24-.02.47,0,.7.06.14.15.29.29.46.4.17-.11.33-.25.46-.4.72-.21.97.04.75.74-.16.14-.29.29-.41.46.11.17.25.32.41.46.16.45.03.75-.41.91-.3-.15-.57-.34-.81-.57-.24.26-.53.45-.87.57-.39-.08-.54-.31-.46-.68.15-.24.33-.47.52-.68-.22-.23-.41-.48-.58-.74.06-.18.14-.35.23-.51Z"/>
  <path class="st4" d="M62.66,50.5c.42,0,.77.15,1.04.46.31-.38.7-.5,1.16-.34.26.47.14.87-.35,1.2.49.33.61.73.35,1.2-.46.16-.85.04-1.16-.34-.31.38-.7.5-1.16.34-.26-.47-.14-.87.35-1.2-.57-.4-.65-.84-.23-1.31Z"/>
  <path class="st1" d="M22.77,55.52c.83.04,1.16.45.99,1.26-.6.64-1.14.6-1.62-.11-.1-.57.11-.95.64-1.14Z"/>
</svg>
